src/svg/medium-m.svg

<svg height="1000" width="1000.0" xmlns="http://www.w3.org/2000/svg">
    <path d="m139.6 277.9c1.2-11.5-3.3-23-11.9-30.8l-88.1-106.3v-15.8h273.9l211.7 464.3 186.1-464.3h261.2v15.8l-75.4 72.3c-6.5 4.9-9.8 13.1-8.4 21.1v531.2c-1.4 8 1.9 16.2 8.4 21.1l73.6 72.3v15.8h-370.5v-15.8l76.4-74c7.4-7.5 7.4-9.8 7.4-21.1v-429.3l-212.3 538.8h-28.7l-246.9-538.8v361.1c-2.2 15.2 2.9 30.5 13.7 41.4l99.2 120.3v15.8h-281.3v-15.6l99.3-120.5c10.5-10.9 15.4-26.4 12.6-41.4v-417.6z" />
  </svg>

<svg height="1000" width="1000" xmlns="http://www.w3.org/2000/svg"><path d="M139.6 277.9c1.2 -11.5 -3.3 -23 -11.9 -30.8L39.6 140.8V125h273.9l211.7 464.3L711.3 125h261.2v15.8l-75.4 72.3c-6.5 4.9 -9.8 13.1 -8.4 21.1v531.2c-1.4 8 1.9 16.2 8.4 21.1l73.6 72.3v15.8H600.2v-15.8l76.4 -74c7.4 -7.5 7.4 -9.8 7.4 -21.1V334.4L471.7 873.2H443L196.1 334.4v361.1c-2.2 15.2 2.9 30.5 13.7 41.4L309 857.2V873H27.7v-15.6L127 736.9c10.5 -10.9 15.4 -26.4 12.6 -41.4V277.9z"/></svg>
